X: 1
T: Jenny Pluck Pears
C: Trad
R: Playford
L: 1/8
M: 6/8
K: ADor
Z: ABC transcription by Verge Roller
|: "Am" A2 A "G" B>cd | "Am" c>BA "Em" G2 E | "Am" A2 A "G" B>cd | "Am" c>BA "Em" G2 E |
"C" e2 e "G" d2 B | "Am" c>BA "Em" G2 E | "D" F>GA "G" G>FG | "Am" A3 A3 :|
M: 3/4
"Am" A2 e2 "G" d2 | "Am" c4 "G" B2 | "Am" A2 e2 "G" d2 | "Am" c4 "G" B2 |
"Am" A2 e2 "G" d2 | "C" c3 B "Am" A2 | "G" G3 F G2 | "Am" A6 |]
r: 24
